labtop/public/img/user-icon.svg

<svg width="54" height="54" viewBox="0 0 54 54" fill="none" xmlns="http://www.w3.org/2000/svg">
<g clip-path="url(#clip0_3_81)">
<path d="M25.2679 43.6567C22.6231 43.6567 20.0254 43.0427 17.6167 41.7675C15.0191 40.3978 12.7993 38.4142 11.2407 35.911L13.6494 34.3996C14.9246 36.4305 16.7666 38.1308 18.8919 39.2171C22.1508 40.9173 25.9292 41.248 29.4242 40.1617C32.9664 39.0754 35.8002 36.6667 37.5005 33.3606L40.0036 34.683C37.9728 38.6031 34.4777 41.5313 30.2271 42.8538C28.6685 43.3733 26.9682 43.6567 25.2679 43.6567ZM19.2225 19.6639H16.3887V22.7811H19.2225V19.6639ZM33.3442 19.6639H30.5104V22.7811H33.3442V19.6639ZM9.91826 45.0263C7.93461 43.2316 6.28156 41.059 5.00636 38.6031L2.50318 39.9255C3.92007 42.6648 5.76203 45.0736 7.98183 47.1044L9.91826 45.0263ZM43.782 46.5849C48.6467 41.8147 51.4332 35.3915 51.5749 28.5904L48.7411 28.5431C48.4578 41.0118 38.1144 51.2134 25.5985 51.2134C22.3869 51.2134 19.2698 50.5522 16.2943 49.277L15.1608 51.8747C18.5141 53.3388 22.0091 54.0945 25.5985 54.0945C32.4469 54 38.9173 51.3551 43.782 46.5849ZM46.7575 12.9101C46.1435 12.0127 45.4351 11.1153 44.5377 10.1708L42.5068 12.1544C43.2625 12.9573 43.9237 13.7602 44.4432 14.5159L46.7575 12.9101ZM39.4841 6.06176C38.0672 5.1644 36.8865 4.55041 35.6585 4.07811L34.5722 6.72298C35.6113 7.14805 36.6976 7.7148 37.9255 8.51771L39.4841 6.06176ZM25.6458 4.83379C27.6767 4.83379 29.6603 5.06994 31.5495 5.58946L32.2579 2.85014C30.1326 2.28338 27.8656 2 25.6458 2C12.8465 2 2.07811 11.1153 0 23.6312L2.78656 24.1035C4.67575 12.9573 14.2634 4.83379 25.6458 4.83379Z" fill="#1F65D9"/>
</g>
<defs>
<clipPath id="clip0_3_81">
<rect width="54" height="54" fill="white"/>
</clipPath>
</defs>
</svg>

<svg width="54" height="54" fill="none" xmlns="http://www.w3.org/2000/svg"><g clip-path="url(#clip0_3_81)"><path d="M25.268 43.657c-2.645 0-5.243-.614-7.651-1.89-2.598-1.37-4.818-3.353-6.376-5.856l2.408-1.511a13.536 13.536 0 005.243 4.817 13.853 13.853 0 0010.532.945c3.542-1.087 6.376-3.495 8.077-6.801l2.503 1.322a16.479 16.479 0 01-9.777 8.17 15.81 15.81 0 01-4.96.804zm-6.046-23.993H16.39v3.117h2.834v-3.117zm14.122 0H30.51v3.117h2.834v-3.117zM9.918 45.026c-1.983-1.794-3.636-3.967-4.912-6.423l-2.503 1.322a25.65 25.65 0 005.479 7.18l1.936-2.079zm33.864 1.559a25.896 25.896 0 007.793-17.995l-2.834-.047c-.283 12.469-10.627 22.67-23.142 22.67-3.212 0-6.33-.66-9.305-1.936l-1.133 2.598c3.353 1.464 6.848 2.22 10.438 2.22 6.848-.095 13.318-2.74 18.183-7.51zm2.976-33.675a21.74 21.74 0 00-2.22-2.74l-2.031 1.984a20.342 20.342 0 011.936 2.362l2.315-1.606zm-7.274-6.848c-1.417-.898-2.598-1.512-3.826-1.984l-1.086 2.645c1.04.425 2.126.992 3.353 1.795l1.56-2.456zM25.646 4.834c2.03 0 4.014.236 5.903.755l.709-2.739A25.908 25.908 0 0025.646 2C12.846 2 2.078 11.115 0 23.631l2.787.473c1.889-11.147 11.476-19.27 22.859-19.27z" fill="#1F65D9"/></g><defs><clipPath id="clip0_3_81"><path fill="#fff" d="M0 0h54v54H0z"/></clipPath></defs></svg>
